X:1
T:Title
%%score { ( 1 4 ) | ( 2 3 ) }
L:1/8
M:4/4
K:Db
V:1 treble nm="Grand Piano"
V:4 treble 
V:2 bass 
V:3 bass 
V:1
 z4 z2 z[Q:1/4=100] A |[M:3/4] [FB]2 [FA][DF] ED | G2 G G3 | [CE]F G [Ac]2 [GB] | %4
 A2- [FA-] [FA]2 A | [FB]2 [FA][DF] ED | G2 G G3 | =GG G c2 B | E2 z2 z2 |[M:1/8] [GA] | %10
[M:3/4] d2 z [A,FA]2 [FB] | c2- [Gc-] [Gc]2 [EG] | cB A [EG]2 [CA] | F6 | A3 d3 | %15
[M:7/8] d-d-d- d3 z |[M:3/4] [DFA][FB] [FA] [A,DF]2[K:bass] [G,CE] |[M:5/8] [F,D]-[F,D]- [F,D]3 |] %18
V:2
 z4 z2 z F |[M:3/4] [D,A,]4 .C2 | [E,A,C]2 [E,A,C] [E,G,C]3 | z D E [A,,A,]3 | %4
 [D,A,]2 [D,A,] [D,A,]2 F | [D,A,]4 .C2 | [E,A,C]2 [E,A,C] [E,A,C]3 | %7
 [E,B,D][E,B,D] [E,B,D] [E,A,E]2 [E,=G,D] | z2[K:treble] F G3 |[M:1/8][K:bass] A, | %10
[M:3/4] z z/[K:treble] c/ B[K:bass] D,2 [D,A,] | [E,A,]2 [E,A,] [E,A,]2 [C,A,] | %12
 z2 F [A,,A,]2 [A,,A,] | [D,A,D]2 [D,A,] [D,A,]2 D/E/ | D,2 D, [_C,_C]2 [C,C] | %15
[M:7/8] [B,,B,]2 [B,,B,] [=A,,=A,]3 z |[M:3/4] z D D A,,2 A,, |[M:5/8] D,-D,- D,3 |] %18
V:3
 x8 |[M:3/4] z2 z [A,,A,]3 | x6 | [A,,A,]4 z2 | x6 | z2 z [A,,A,]3 | x6 | x6 | A,,6[K:treble] | %9
[M:1/8][K:bass] x |[M:3/4] [D,A,]4[K:treble][K:bass] z2 | x6 | [A,,A,]4 z2 | x6 | x6 |[M:7/8] x7 | %16
[M:3/4] [A,,A,]4 z2 |[M:5/8] x5 |] %18
V:4
 x8 |[M:3/4] x6 | x6 | x6 | F2 z2 z2 | x6 | x6 | x6 | [A,CA]6 |[M:1/8] x |[M:3/4] F4 z2 | %11
 G2 z2 z2 | G2 z2 z2 | z2 D D2 F/G/ | [A,F]2 [A,F] [DFA]2 [DFA] |[M:7/8] [DG]2 [DG] [=DE=G]3 z | %16
[M:3/4] x5[K:bass] x |[M:5/8] x5 |] %18

